src/lib/packages/icons/src/assets/line/bluetooth.svg

<svg width="24" height="24" viewBox="0 0 24 24" fill="none" xmlns="http://www.w3.org/2000/svg">
<path d="M12 21.75C11.903 21.75 11.8059 21.731 11.7129 21.693C11.4329 21.577 11.25 21.304 11.25 21V14.184L7.50193 17.557C7.19293 17.834 6.71987 17.809 6.44187 17.501C6.16487 17.193 6.19002 16.719 6.49802 16.442L10.7971 12.573L6.57004 9.61402C6.23004 9.37602 6.14798 8.90901 6.38498 8.56901C6.62098 8.23001 7.08893 8.14702 7.42893 8.38502L11.249 11.059V3.00001C11.249 2.69701 11.4319 2.42302 11.7119 2.30702C11.9919 2.19102 12.315 2.25501 12.529 2.47001L17.529 7.47001C17.675 7.61601 17.754 7.814 17.749 8.02C17.743 8.226 17.653 8.42002 17.501 8.55802L13.2019 12.427L17.4289 15.386C17.6109 15.513 17.7271 15.714 17.7461 15.935C17.7651 16.156 17.686 16.374 17.529 16.531L12.529 21.531C12.387 21.674 12.195 21.75 12 21.75ZM12.75 13.94V19.189L15.8379 16.101L12.75 13.94ZM12.75 4.81101V10.816L15.9109 7.972L12.75 4.81101Z" fill="currentColor"/>
</svg>

<svg xmlns="http://www.w3.org/2000/svg" width="24" height="24" fill="none"><path fill="currentColor" d="M12 21.75a.75.75 0 0 1-.75-.75v-6.816l-3.748 3.373a.751.751 0 0 1-1.004-1.115l4.3-3.869L6.57 9.614a.75.75 0 0 1 .859-1.229l3.82 2.674V3a.75.75 0 0 1 1.28-.53l5 5a.75.75 0 0 1-.028 1.088l-4.3 3.869 4.228 2.959a.747.747 0 0 1 .1 1.145l-5 5a.746.746 0 0 1-.529.219Zm.75-7.81v5.249l3.088-3.088-3.088-2.161Zm0-9.129v6.005l3.16-2.844-3.16-3.161Z"/></svg>
